X: 42558
T: When Sick Is It Tea That You Want?
R: jig
M: 6/8
K: Cmajor
|:G|Gcc cBA|G>AG GEG|Ecc dcd|ecA A2G|
Gcc cBA|G>AG GEG|cec dgf|ecc c2:|
|:e/f/|gec cBc|AFF F2f/g/|afd ded|BGG G2G|
Gcc cBA|G>AG GEG|cec dgf|ecc c2:|

